**kern	**kern	**dynam
*part1	*part1	*part1
*staff2	*staff1	*
*I"Piano	*	*
*clefF4	*clefG2	*
*k[b-e-a-]	*k[b-e-a-]	*
=1	=1	=1
4.GG 4.G	2B- 2e- 2g	.
8EE- 8E-	.	.
=	=	=
!	!	!LO:DY:a
4BB-	4G 4e-	p
4BB-	4A- 4d 4f	.
=	=	=
(8EE-L	8G 8e-	.
8BB-	8r	.
8E-	(16ggLL	p
.	16ee-JJ)	.
8BB-J)	8r	.
=	=	=
8DDL	4r	.
8BB-	.	.
8D	(16aa-LL	.
.	16ffJJ)	.
8BB-J	8r	.
=	=	=
8EE-L	4r	.
8BB-	.	.
8E-	(16ggLL	.
.	16ee-JJ)	.
8BB-J	8r	.
=	=	=
8DDL	4r	.
8BB-	.	.
8D	(16aa-LL	.
.	16ffJJ)	.
8BB-J	8r	.
=	=	=
8EE-L	8r	f
8E-	((16ggLL	.
.	16ee-JJ))	.
8GG	8r	.
8E-J	(16bb-LL	.
.	16ee-JJ)	.
=	=	=
8AA-L	8r	.
8E-	(16cccLL	.
.	16ee-JJ)	.
8C	8r	.
8E-J	(16aa-LL	.
.	16ee-JJ)	.
=	=	=
*-	*-	*-
!!!system-decoration: {(s1,s2)}
